X:9167
T:Lady Montgomery
R:reel
D:Paul McGrattan: The Frost Is All Over
Z:id:hn-reel-511
M:C|
K:D
~F3A AFDE|F2EG FDDE|~F3A AFDE|1 FDEC D2DE:|2 FDEC D3A||
|:d2AG FGAB|A2ed cdec|1 d2AG FGAB|AFGE FDDA:|2 d2AG ~F3G|AFGE FDDE||
"variations"
|:~F3A AFDE|FAEG FEDE|~F3A AFDE|1 FAEF D2DE:|2 FAEF D3d||
|:d2AG FGAB|A2ed cdec|d2AG FGAB|1 AFEG FEDd:|2 AFEG FDDE||


